!!!!SEGMENT: pl-kk--kk-i-3--060-001_anonim--aliud-per-octavas-sanctus.krn
!!!cenid: 15xx:719
!!!COM: Anonim
!!!COM-rismID: pe30004985
!!!CDT:
!!!CNT:
!!!OPR: Aliud per octavas
!!!OTL: Sanctus
!!!OMV: 001
!!!PDT:
!!!AGN:
!!!YEC: Copyright 2022 Narodowy Instytut Fryderyka Chopina (https://polishscores.org)
!!!YEM: License CC-BY-4.0 (https://creativecommons.org/licenses/by/4.0)
!!!SMS-siglum: PL-Kk
!!!SMS-shelfmark: Kk.I.3
!!!SMS-shelfwork: 060-001 M
!!!SMS-variant:
!!!SMS-altvar:
!!!NIFC-rismSourceID: 1001145493
!!!NIFC-rismChildID: 1001145493
!!!NIFC-islandoraID: pl-kk:1170
!!!URL-pdf-islandora: https://repozytorium.nifc.pl/islandora/object/pl-kk%3A1170/datastream/PDF/view
!!!URL-scan: https://polish.musicsources.pl/pl/lokalizacje/galeria/rekopisy/5919 @EN{Scan on Polish Music Sources Website} @PL{Skany w portalu Dziedzictwo Muzyki Polskiej w otwartym dostępie}
!!!IIIF:
!!!ONB-nifc: UWAGA: Discantus (s. 159v-161r, skan 0162-0163), Tenor (s. 121v-122v, skan 0294-0295), Bassus (s. 153v-154v, skan 0457-0458). Uwaga: Sanctus z Benedictusem
!!!AIN: 1 bass 1 empty 1 tenor
!!!key: a:aeo
**kern	**text	**kern	**text	**kern	**text
*part3	*	*part2	*	*part1	*
*staff3	*	*staff2	*	*staff1	*
*Ibass	*	*Itenor	*	*Iempty	*
*I"[Bassus]	*	*I"[Tenor]	*	*I"[Discantus]	*
*I'B	*	*I'T	*	*I'S	*
*ICvox	*	*ICvox	*	*ICvox	*
*clefF4	*	*clefC4	*	*clefC3	*
*k[b-]	*	*k[b-]	*	*k[b-]	*
*a:aeo	*	*a:aeo	*	*a:aeo	*
*M2/1	*	*M2/1	*	*M2/1	*
*met(C|)	*	*met(C|)	*	*met(C|)	*
*	*	*lig	*	*	*
=1-	=1-	=1-	=1-	=1-	=1-
1C	San-	1c	San-	1e	San-
4D/	.	1A	.	4f\	.
4E\	.	.	.	4g\	.
4F\	.	.	.	4a\	.
4D/	.	.	.	4f\	.
*	*	*Xlig	*	*	*
=2-	=2-	=2-	=2-	=2-	=2-
*	*	*lig	*	*	*
2E\	.	1c	.	2g\	.
1F	.	.	.	2a\	.
.	.	1G	.	1g	.
2E\	.	.	.	.	.
*	*	*Xlig	*	*	*
=3-	=3-	=3-	=3-	=3-	=3-
1F	.	1A	.	4.f\	.
.	.	.	.	16e\LL	.
.	.	.	.	16d\JJ	.
*	*	*	*	*custos:A	*
.	.	.	.	2c/	-ctus
!	!	!	!	!LO:LB:g=original	!
2.FF/	-ctus	0F	.	2.A/	San-
*	*ij	*	*	*	*
4GG/	San-	.	.	4B-/	.
=4-	=4-	=4-	=4-	=4-	=4-
2AA/	.	.	.	2c/	.
2BB-/	.	.	.	2d\	.
2C/	.	1E	.	2e\	.
2AA/	.	.	.	2c/	.
!LO:LB:g=original	!	!	!	!	!
=5-	=5-	=5-	=5-	=5-	=5-
*lig	*	*	*	*	*
1BB-	.	1D	.	4d\	.
.	.	.	.	4e\	.
.	.	.	.	2.f\	.
1C	.	1G	.	.	.
.	.	.	.	8e\L	.
.	.	.	.	8d\J	.
.	.	.	.	2e\	-ctus
*Xlig	*	*	*	*	*
=6-	=6-	=6-	=6-	=6-	=6-
*	*	*custos:c	*	*	*
1FF	-ctus	00F	-ctus.	2f\	.
*	*Xij	*	*	*	*
.	.	.	.	2c/	.
1.BB-	San-	.	.	2.B-/	San-
.	.	.	.	4c/	.
=7-	=7-	=7-	=7-	=7-	=7-
.	.	.	.	2d\	.
*	*	*	*	*custos:f	*
2C/	.	.	.	2e\	.
!	!	!	!	!LO:LB:g=original	!
2D/	.	.	.	2f\	.
2E\	.	.	.	2g\	.
=8-	=8-	=8-	=8-	=8-	=8-
2.F\	.	0Fyy	.	2.a\	.
4G\	.	.	.	4g\	.
4A\	.	.	.	4f\	.
4G\	.	.	.	4e\	.
4F\	.	.	.	4d\	.
4E\	.	.	.	4c/	.
=9-	=9-	=9-	=9-	=9-	=9-
2.D/	.	0Fyy	.	2d\	.
.	.	.	.	2A/	.
4C/	.	.	.	.	.
2BB-/	.	.	.	2B-/	.
2AA/	.	.	.	2c/	.
=10-	=10-	=10-	=10-	=10-	=10-
1BB-	.	0Fyy	.	1d	.
!LO:TX:t=P:problem=nieczytelne źródło, ale jakaś nutka tam jest	!	!	!	!	!
!	!	!	!	!LO:N:vis=00	!
1FFyy	-ctus	.	.	1c;<	-ctus
!	!	!LO:PB:g=original	!	!	!
!LO:LB:g=original	!	!	!	!	!
=11||-	=11||-	=11||-	=11||-	=11||-	=11||-
*	*	*lig	*	*	*
2r	.	1c	San-	2.e\	San-
1c	San-	.	.	.	.
.	.	.	.	4f\	.
.	.	1d	.	4g\	.
*	*	*	*	*custos:g	*
.	.	.	.	4d\	.
!	!	!	!	!LO:LB:g=original	!
2B-\	.	.	.	2.g\	.
*	*	*Xlig	*	*	*
=12-	=12-	=12-	=12-	=12-	=12-
*	*	*lig	*	*	*
1A	.	1c	.	.	.
!	!	!	!	!LO:TX:t=P:problem=# above	!
.	.	.	.	8f#X\L	.
.	.	.	.	8e\J	.
.	.	.	.	2f#\	.
1G	.	1d	.	1g	.
*	*	*Xlig	*	*	*
=13-	=13-	=13-	=13-	=13-	=13-
2F\	.	0f	.	2c\	-ctus
2.D/	-ctus	.	.	4d\	San-
.	.	.	.	4e\	.
.	.	.	.	4fny\	.
4E\	/San-	.	.	4g\	.
4F\	.	.	.	1a\	.
4G\	.	.	.	.	.
=14-	=14-	=14-	=14-	=14-	=14-
*	*	*lig	*	*	*
4A\	.	1e	.	.	.
4B-\	.	.	.	.	.
2c\	.	.	.	2g\	.
1G	.	1d	.	0g	.
*	*	*Xlig	*	*	*
=15-	=15-	=15-	=15-	=15-	=15-
0C	-ctus/	1e	.	.	.
.	.	0c	.	1e	-ctus
=16-	=16-	=16-	=16-	=16-	=16-
2r	.	.	.	2r	.
*custos:D	*	*	*	*	*
2C/	San-	.	.	2e\	San-
!LO:LB:g=original	!	!	!	!	!
*	*	*lig	*	*	*
2D/	.	1B-	.	2f\	.
2E\	.	.	.	2g\	.
=17-	=17-	=17-	=17-	=17-	=17-
*	*	*	*	*custos:g	*
1F	.	1A	.	1a	.
*	*	*Xlig	*	*	*
!	!	!	!	!LO:LB:g=original	!
1G	.	1d	.	2.g\	.
.	.	.	.	4f\	.
=18-	=18-	=18-	=18-	=18-	=18-
*	*	*custos:c	*	*	*
2.A\	.	00.c	-ctus	1e	-ctus
4G\	.	.	.	.	.
2F\	.	.	.	2.a\	San-
2E\	.	.	.	.	.
.	.	.	.	4g\	.
=19-	=19-	=19-	=19-	=19-	=19-
*	*	*lig	*	*	*
1F	.	.	.	2f\	.
.	.	.	.	2e\	.
0.C	-ctus	.	.	4f\	.
.	.	.	.	4c/	.
.	.	.	.	1f\	.
=20-	=20-	=20-	=20-	=20-	=20-
.	.	.	.	.	.
.	.	.	.	4e\	-ctus
.	.	.	.	4d\	.
!	!	!	!	!LO:N:vis=0	!
.	.	.	.	1e;;	.
!	!	!LO:LB:g=original	!	!	!
=21||-	=21||-	=21||-	=21||-	=21||-	=21||-
*	*	*lig	*	*	*
0F	San-	1c	San-	1r	.
.	.	1A	.	2.c/	San-
.	.	.	.	4d\	.
*	*	*Xlig	*	*	*
=22-	=22-	=22-	=22-	=22-	=22-
*custos:F	*	*	*	*	*
*	*	*lig	*	*	*
*	*	*	*	*custos:f	*
0C	-ctus	1c	.	2e\	.
!	!	!	!	!LO:LB:g=original	!
.	.	.	.	2.f\	.
.	.	1G	.	.	.
.	.	.	.	8e\L	.
.	.	.	.	8d\J	.
.	.	.	.	2e\	.
*	*	*Xlig	*	*	*
!LO:LB:g=original	!	!	!	!	!
=23-	=23-	=23-	=23-	=23-	=23-
*	*ij	*	*	*	*
2.F\	San-	1A	.	2f\	.
.	.	.	.	2.a\	.
4E\	.	.	.	.	.
4D/	.	0F	.	.	.
4C/	.	.	.	4g\	.
1D\	.	.	.	4f\	.
.	.	.	.	4e\	.
=24-	=24-	=24-	=24-	=24-	=24-
.	.	.	.	4d\	.
.	.	.	.	4c/	.
2BB-/	.	.	.	2.d\	.
*	*	*lig	*	*	*
1C	.	1E	.	.	.
.	.	.	.	4c/	.
.	.	.	.	1c\	.
=25-	=25-	=25-	=25-	=25-	=25-
0GG	-ctus	1D	.	.	.
*	*Xij	*	*	*	*
.	.	.	.	4B-/	.
.	.	.	.	4A/	.
*	*	*Xlig	*	*	*
!	!	!	!	!LO:N:acc=#	!
!	!	!	!	!LO:TX:t=P:problem=# below	!
.	.	1G	.	1Bn	.
=26-	=26-	=26-	=26-	=26-	=26-
*	*	*	*	*custos:d	*
2r	.	1F,	-ctus	2c/	-ctus
!	!	!	!	!LO:PB:g=original	!
2.BB-/	do-	.	.	2.d\	Do-
.	.	1F	Do-	.	.
4C/	-mi-	.	.	4e	.
2D/	-nus	.	.	4f\	.
.	.	.	.	4g	.
=27-	=27-	=27-	=27-	=27-	=27-
1AA	De-	1E	-mi-	2a\	.
.	.	.	.	2a\	.
*	*	*custos:F	*	*	*
1BB-	-us	1D	-nus	2f\	-mi-
.	.	.	.	2.d\	-nus
!	!	!LO:LB:g=original	!	!	!
=28-	=28-	=28-	=28-	=28-	=28-
*	*	*lig	*	*	*
1FF	ſa-	1F	De-	.	.
.	.	.	.	4c\	De-
.	.	.	.	1f	-us
1C	-ba-	1G	.	.	.
.	.	.	.	2e\	Sa-
*	*	*Xlig	*	*	*
!LO:LB:g=original	!	!	!	!	!
=29-	=29-	=29-	=29-	=29-	=29-
*	*	*lig	*	*	*
2FF/	-oth	1F	.	2f\	-ba-
*	*ij	*	*	*	*
1F	ſa-	.	.	2f\	-oth
.	.	1G	.	2d\	.
2E\	-ba-	.	.	2e\	Do-
*	*	*Xlig	*	*	*
=30-	=30-	=30-	=30-	=30-	=30-
2F\	.	1A	-us	2c\	-mi-
*	*	*	*	*custos:e	*
2D/	.	.	.	2d\	-nus
!	!	!	!	!LO:LB:g=original	!
*	*	*lig	*	*	*
2C/	.	1c	ſa-	2.e\	De-
2C/	.	.	.	.	.
.	.	.	.	4f\	-is
=31-	=31-	=31-	=31-	=31-	=31-
1G	.	1d	.	2g\	Sab-
.	.	.	.	2g\	-ba-
*	*	*Xlig	*	*	*
*	*	*lig	*	*	*
2C,/	-oth	1c	.	2e,\	-ot
*	*Xij	*	*	*	*
*	*ij	*	*	*	*
1F\	ſa-	.	.	1a\	Do-
=32-	=32-	=32-	=32-	=32-	=32-
.	.	1d	.	.	.
2F\	-ba-	.	.	2g\	-mi-
*	*	*Xlig	*	*	*
1F	.	0f	.	1a	-n(us)
=33-	=33-	=33-	=33-	=33-	=33-
1D	.	.	.	1d	De-
*	*	*lig	*	*	*
1C	.	1e	.	1g	-(us)
=34-	=34-	=34-	=34-	=34-	=34-
2.G\	.	1d	.	2.g\	Sab-
4G\	.	.	.	4g\	-ba-
*	*	*Xlig	*	*	*
*custos:F	*	*	*	*	*
1C	-oth	1e	.	1g	-oth
*	*Xij	*	*	*	*
!LO:LB:g=original	!	!	!	!	!
=35-	=35-	=35-	=35-	=35-	=35-
*	*	*custos:B-	*	*	*
1F	do-	0c	.	1a	D(o-
2E\	-mi-	.	.	2g\	-mi)-
2F\	-nus	.	.	2a\	-nus
!	!	!LO:LB:g=original	!	!	!
=36-	=36-	=36-	=36-	=36-	=36-
*	*	*lig	*	*	*
1G	De-	1B-	.	2.d\	.
*	*	*	*	*custos:f	*
.	.	.	.	4e\	.
!	!	!	!	!LO:LB:g=original	!
2D/	-us	1A	.	4f\	.
.	.	.	.	4g\	.
1F\	ſa-	.	.	1a\	.
*	*	*Xlig	*	*	*
=37-	=37-	=37-	=37-	=37-	=37-
.	.	1d	-ba-	.	.
2G\	-ba-	.	.	2g\	.
2C/	-oth	00c	-oth	1e	.
2C/	ſa-	.	.	.	.
=38-	=38-	=38-	=38-	=38-	=38-
1F	-ba-	.	.	1.f	.
0.C	-oth	.	.	.	.
.	.	.	.	4e\	.
.	.	.	.	4d\	.
=39-	=39-	=39-	=39-	=39-	=39-
.	.	.	.	0e	.
.	.	1cyy	.	.	.
=40||-	=40||-	=40||-	=40||-	=40||-	=40||-
2r	.	1c	Ple-	2r	.
1F	Ple-	.	.	1f	Ple-
.	.	1A	-ni	.	.
2D/	-ni	.	.	2f\	-ni
=41-	=41-	=41-	=41-	=41-	=41-
2C/	ſunt	1c	ſunt	2e\	ſu(n)t
2.F\	cae-	.	.	2f\	cae-
.	.	1G	cae-	2g\	-li
8E\L	.	.	.	.	.
8D\J	.	.	.	.	.
*	*	*	*	*custos:f	*
2E\	.	.	.	2g\	et
!	!	!	!	!LO:LB:g=original	!
=42-	=42-	=42-	=42-	=42-	=42-
1F	.	1A	-li	1f	ter-
*	*	*custos:E	*	*	*
1FF	-li	0F	et	2f\	-ra
*	*	*	*	*	*ij
.	.	.	.	2c/	Ple-
=43-	=43-	=43-	=43-	=43-	=43-
*	*ij	*	*	*	*
2FF/	Ple-	.	.	2c/	-ni
2FF/	-ni	.	.	2c/	ſu(n)t
!	!	!LO:LB:g=original	!	!	!
*	*	*lig	*	*	*Xij
2.AA/	ſunt	1E	.	1d	.
4AA/	caeli	.	.	.	.
*	*Xij	*	*	*	*
=44-	=44-	=44-	=44-	=44-	=44-
*custos:C	*	*	*	*	*
1BB-	et	1D	.	4d\	.
.	.	.	.	4e\	.
.	.	.	.	1f	.
*	*	*Xlig	*	*	*
!LO:LB:g=original	!	!	!	!	!
1C	ter-	1G	ter-	.	.
.	.	.	.	2e\	.
=45-	=45-	=45-	=45-	=45-	=45-
2FF/	-ra	1F	-ra	2f\	.
2.BB-/	glo-	.	.	2.d\	cae-
.	.	1F	glo-	.	.
4C/	-ri-	.	.	4e\	.
2D/	-a	.	.	4f\	.
.	.	.	.	4g\	.
=46-	=46-	=46-	=46-	=46-	=46-
*	*	*	*	*custos:f	*
1AA	tu-	1E	-ri-	1a	.
!	!	!	!	!LO:LB:g=original	!
2BB-/	-a	1D	-a	2f\	-li
*	*ij	*	*	*	*
2.BB-/	glo-	.	.	1d\	et
=47-	=47-	=47-	=47-	=47-	=47-
*	*	*lig	*	*	*
.	.	1F	tu-	.	.
4BB-/	-ri-	.	.	.	.
2FF/	-a	.	.	1f	.
1C	tu-	1G	.	.	.
.	.	.	.	2e\	ter-
*	*	*Xlig	*	*	*
=48-	=48-	=48-	=48-	=48-	=48-
*	*	*lig	*	*	*
2FF/	-a	1F	.	2f\	-ra
*	*Xij	*	*	*	*ij
2.F\	glo-	.	.	2f\	Ple-
.	.	1G	.	2d\	-ni
4F\	-ri-	.	.	.	.
*custos:D	*	*	*	*	*
2E\	-a	.	.	2e\	ſu(n)t
*	*	*Xlig	*	*	*Xij
!LO:LB:g=original	!	!	!	!	!
=49-	=49-	=49-	=49-	=49-	=49-
*	*	*custos:c	*	*	*
0.D	tu-	00A	-a	2f\	.
.	.	.	.	2d\	.
.	.	.	.	2.a\	cae-
.	.	.	.	4a\	-li
=50-	=50-	=50-	=50-	=50-	=50-
.	.	.	.	2a\	et
.	.	.	.	2f\	ter-
*	*	*	*	*custos:g	*
!LO:N:vis=00	!	!	!	!LO:N:vis=0	!
1AA\	-a	.	.	1e	-ra
!LO:PB:g=original	!	!LO:PB:g=original	!	!LO:LB:g=original	!
=51||-	=51||-	=51||-	=51||-	=51||-	=51||-
*	*	*lig	*	*	*
1C	O-	1c	O-	1g	O-
1G	-ſan-	1d	.	1g	-ſan-
*	*	*Xlig	*	*	*
=52-	=52-	=52-	=52-	=52-	=52-
*	*	*lig	*	*	*
2C/	-na	1c	.	2g\	-na
2c\	in	.	.	2e\	in
2B-\	ex-	1d	.	2f\	ex-
2G\	-cel-	.	.	2g\	-cel-
*	*	*Xlig	*	*	*
=53-	=53-	=53-	=53-	=53-	=53-
2F\	-ſis	0f	.	2a\	-ſis
1B-	in	.	.	1b-	in
2F\	ex-	.	.	2a\	ex-
=54-	=54-	=54-	=54-	=54-	=54-
*lig	*	*	*	*	*
1c	-cel-	1e	.	0g	-cel-
*	*	*lig	*	*	*
1G	.	1d	.	.	.
*Xlig	*	*	*	*	*
=55-	=55-	=55-	=55-	=55-	=55-
2C/	-ſis	1e	.	2g\	-ſis
2C/	O-	.	.	2g\	O-
*	*	*Xlig	*	*	*
2.C/	-ſan-	0c	.	2.e\	-ſan-
4D/	-na	.	.	4f\	-na
!LO:LB:g=original	!	!	!	!	!
=56-	=56-	=56-	=56-	=56-	=56-
2E\	in	.	.	2g\	in
*	*	*	*	*custos:g	*
2F\	ex-	.	.	2a\	ex-
!	!	!	!	!LO:LB:g=original	!
*	*	*lig	*	*	*
1G	-cel-	1B-	.	1g	-cel-
=57-	=57-	=57-	=57-	=57-	=57-
!	!	!	!	!LO:TX:t=P:problem=# below	!
0D	-ſis	1A	.	0f#X	-ſis
*	*	*Xlig	*	*	*
.	.	1d	-ſan-	.	.
=58-	=58-	=58-	=58-	=58-	=58-
*	*	*custos:c	*	*	*
1F	in	1c	-na	2r	.
*	*	*	*	*	*ij
.	.	.	.	2a\	O-
!	!	!LO:LB:g=original	!	!	!
0F	ex-	1c	in	2a\	-ſan-
.	.	.	.	2a\	-na
=59-	=59-	=59-	=59-	=59-	=59-
.	.	1A	ex-	2fny\	in
.	.	.	.	1f	ex-
*	*	*lig	*	*	*
0C	-cel	1c	-cel-	.	.
.	.	.	.	4e\	-cel-
.	.	.	.	4d\	-ſis
*	*	*	*	*	*Xij
=60-	=60-	=60-	=60-	=60-	=60-
.	.	1G	.	2e\	.
.	.	.	.	2e\	.
*	*	*Xlig	*	*	*
2FF/	-ſis	1A	.	2f\	.
2FF/	O-	.	.	1c\	O-
=61-	=61-	=61-	=61-	=61-	=61-
2.FF/	-ſan-	0F	.	.	.
.	.	.	.	2d\	-ſan-
4GG/	-na	.	.	.	.
2AA/	in	.	.	2c/	-na
*	*	*	*	*custos:e	*
2BB-/	ex-	.	.	2d\	O-
!	!	!	!	!LO:LB:g=original	!
=62-	=62-	=62-	=62-	=62-	=62-
*	*	*lig	*	*	*
2C/	-cel-	1E	.	2e\	-ſan-
2AA/	.	.	.	2c/	-na
*lig	*	*	*	*	*
1BB-	.	1D	.	4d\	in
.	.	.	.	4e\	.
.	.	.	.	1f\	ex-
*	*	*Xlig	*	*	*
=63-	=63-	=63-	=63-	=63-	=63-
1C	.	1G	.	.	.
.	.	.	.	2e\	-cel-
*Xlig	*	*	*	*	*
*	*	*custos:c	*	*	*
!LO:N:vis=0	!	!LO:N:vis=0	!	!LO:N:vis=0	!
1FF	-ſis	1F	-ſis.	1f	-ſis
!	!	!LO:LB:g=original	!	!	!
=64||-	=64||-	=64||-	=64||-	=64||-	=64||-
1.F	Be-	1c	Be-	1f	Be-
.	.	1A	-ne-	2f\	-ne-
2F\	-ne-	.	.	1f\	-di-
=65-	=65-	=65-	=65-	=65-	=65-
0C	-di-	1c	-di-	.	.
.	.	.	.	4e\	.
.	.	.	.	4d\	.
.	.	1G	-ctus	1e	.
=66-	=66-	=66-	=66-	=66-	=66-
*	*	*	*	*custos:d	*
1FF	-ctus	1A	qui	1f,	-ctus
!	!	!	!	!LO:LB:g=original	!
*	*ij	*	*	*	*
2.BB-/	Be-	0F	.	2.d\	Be-
4BB-/	-ne-	.	.	4d\	-ne-
=67-	=67-	=67-	=67-	=67-	=67-
1BB-	-di-	.	.	1d	-di-
*	*	*lig	*	*	*
2C/	-ctus	1E	.	2e\	-ctus
*	*Xij	*	*	*	*
2AA/	qui	.	.	2c/	.
=68-	=68-	=68-	=68-	=68-	=68-
*lig	*	*	*	*	*
1BB-	ve-	1D	.	4d\	qui
.	.	.	.	4e\	.
.	.	.	.	1f	ve-
*	*	*Xlig	*	*	*
1C	.	1G	ve-	.	.
.	.	.	.	2e\	.
*Xlig	*	*	*	*	*
=69-	=69-	=69-	=69-	=69-	=69-
1FF	-nit	1F	-nit	2f\	-nit
.	.	.	.	2c/	in
*	*	*custos:d	*	*	*
2F\	in	1F	in	2.A/	no-
2.D\	no-	.	.	.	.
.	.	.	.	4A/	-mi-
!	!	!LO:LB:g=original	!	!	!
=70-	=70-	=70-	=70-	=70-	=70-
.	.	1F	no-	2A/	-ne
4D/	-mi-	.	.	.	.
2D/	-ne	.	.	2a\	in
!LO:LB:g=original	!	!	!	!	!
1AA	do-	1E	-mi-	2.a\	no-
*	*	*	*	*custos:f	*
.	.	.	.	4g\	-mi-
!	!	!	!	!LO:LB:g=original	!
=71-	=71-	=71-	=71-	=71-	=71-
1BB-	-mi-	1D	-ne	2f\	-ne
.	.	.	.	2.d\	Do-
*	*	*lig	*	*	*
2FF/	-ni	1F	Do-	.	.
.	.	.	.	4c\	.
2FF/	in	.	.	1f\	.
=72-	=72-	=72-	=72-	=72-	=72-
2.C/	no-	1G	.	.	.
.	.	.	.	2e\	-mi-
4C/	-mi-	.	.	.	.
*	*	*Xlig	*	*	*
2FF/	-ne	1F	.	2f\	-ni
1F\	do-	.	.	2f\	in
=73-	=73-	=73-	=73-	=73-	=73-
.	.	1G	-mi-	2d\	no-
2E\	-mi-	.	.	2e\	-(m)i-
2D/	-ni	00A	-ni.	1f	-(n)e
2F\	in	.	.	.	.
=74-	=74-	=74-	=74-	=74-	=74-
2.F\	no-	.	.	2r	.
.	.	.	.	2a\	in
4E\	-mi-	.	.	.	.
2D/	-ne	.	.	2.a\	no-
2C#X/	do-	.	.	.	.
.	.	.	.	4g\	-(m)i-
=75-	=75-	=75-	=75-	=75-	=75-
1D	-mi-	.	.	4f\	(n)e
.	.	.	.	4d\	Do-
.	.	.	.	2f\	-mi-
!LO:N:vis=00	!	!	!	!LO:N:vis=00	!
1AA\	-ni	1Ayy	.	1e;<	-ni
==	==	==	==	==	==
*-	*-	*-	*-	*-	*-
!!!RDF**kern: < = below
!!!system-decoration: [(s1,s2,s3)]
!!!ENC: Anastazja Marusiak
!!!END: 2022-01-20
!!!ENC: Urszula Świątek
!!!END: 2022-01-25
